X: 108
T: Hui guannan
L: 1/16
M: 2/4
K: C
D D D E E C A, C [I:setbarnb 1]| 
D4E D C B, | 
A,4A, A, A, C | 
[M:3/4]A A ^F2G8 | 
[M:2/4]A,2 A,2 C D C A, | 
G, A, C2 D C A, G, | 
E, E, E, G, E, D, C,2 | 
D,8 |]

@@@ Tune index: 8982
